shield-lock-open.svg

<svg fill="currentColor" viewBox="0 0 24 24"><path d="M12 1 3 5v6c0 5.5 3.8 10.7 9 12 5.2-1.3 9-6.5 9-12V5zm4 14.8c0 .6-.6 1.2-1.3 1.2H9.2c-.6 0-1.2-.6-1.2-1.3v-3.5c0-.6.6-1.2 1.2-1.2V8.5C9.2 7.1 10.6 6 12 6s2.8 1.1 2.8 2.5V9h-1.3v-.5c0-.8-.7-1.3-1.5-1.3s-1.5.5-1.5 1.3V11h4.3c.6 0 1.2.6 1.2 1.3z"/></svg>

<svg  viewBox="0 0 24 24" fill="currentColor"><path  d="M12 1L3 5V11C3 16.5 6.8 21.7 12 23C17.2 21.7 21 16.5 21 11V5L12 1M16 15.8C16 16.4 15.4 17 14.7 17H9.2C8.6 17 8 16.4 8 15.7V12.2C8 11.6 8.6 11 9.2 11V8.5C9.2 7.1 10.6 6 12 6S14.8 7.1 14.8 8.5V9H13.5V8.5C13.5 7.7 12.8 7.2 12 7.2S10.5 7.7 10.5 8.5V11H14.8C15.4 11 16 11.6 16 12.3V15.8Z"/></svg>
